**kern
*part1
*staff1
*clefG2
*k[b-e-a-]
*M2/4
*>A
8g
=1
(>4.dd
8g)
=2
(>4.dd
8g)
=3
8ddL
8gJ
8ddL
8gJ
=4
4.dd
8g
=5
16ee-LL
16dd
16ee-
16ccJJ
8ddL
8bnJ
=6
8cc
4bn
16a-LL
16gJJ
=7
16ee-LL
16dd
16ee-
16ccJJ
8ddL
8bnJ
=8
8cc
4bn
16a-LL
16gJJ
=9
(>16gLL
16cc)
(>16bn
16ccJJ)
(>16ddLL
16ee-)
(>16dd
16ee-JJ)
=10
(>16ffLL
16ee-)
(>16ee-
16ddJJ)
(>16ddLL
16cc)
(>16cc
16bnJJ)
=11
(>16ddLL
16cc)
(>16cc
16bnJJ)
16bLL
16a-
16g
16fJJ
=12
4g
4gg
=13:|!
2g
=14!|:
*>B
16fLL
16en
16f
16gJJ
16a-LL
16g
16a-
16fJJ
=15
4g
4bn
=16
16ccLL
16bn
16cc
16ddJJ
16ee-LL
16dd
16ee-
16ccJJ
=17
4dd
4gg
=18
16ffLL
(>16gg
16aa-)
(>16ffJJ
16ggLL)
(>16ee-
16ff)
(>16ddJJ
=19
16ee-LL)
(>16cc
16dd)
(>16bnJJ
16ccLL)
(>16a-
16b)
16gJJ
=20
(>16ddLL
16cc)
(>16cc
16bnJJ)
16bLL
16a-
16g
16fJJ
=21
4g
4gg
=:|!
*-
!!!RDF**kern: > = above
!!!! MATCHES : 0
